X:177
T: Qiao qing jia
N: C0298
O: China,Liaoning, Gaixian
S: III, 291]
N: Antike Melodie. Ende der Ming und Qin-Dynastie. Leicht prosaisch:
N: Zwei Schwiegermuetter streiten miteinander am Ende des Liedes, ob
N: nun der Sohn oder die Tochter nichts tauge. Diese Melodie wurde
N: haeufig den Europaeern vorgetragen.
N: Vereinzelt Verzierungen.
R: Xiaodiao, Yinniusi diao]
M: 2/4
L: 1/16
K: C
e2ege2d2 | c2cdc4 | A2AGE2B2 | A8 |
c3Ac2d2 | e2g2e2d2 | c3de2d2 | c8 |
c2AGE2B2 | A6z2 |
AcAGE2B2 | A6z2 |
c3Ac2d2 | e2g2e2d2 | c3de2d2 | c6d2 | B6d2 | A8 |
G3Ac4 | A3cA2G2 | G2E2D2E2 | G3AE2D2 | C8

@@@ Tune index: 6178
